X: 42654
T: Whiskey, You're The Devil
R: polka
M: 2/4
K: Cmajor
CC CD|EG GG|AG AB|c3z|cd cA|AG GE|ED DE|
D3 G|CC CD|EG GG|AG AB|c3z|cd cA|AG EC|D2 C2||
G2|CC CD|EG GG|AD DE|FG G2|cc cA|AG EC|
DC DE|DC A,G,|C2 ED|C2z G|CC C/D/E/F/|G2 E2|
FF F/G/A/B/|c3z|cc dc|AA Gc|ED CC|CCz G:|

